X: 290
T: Hora Agadati (Am)
O: Israel
Z: 1998 by John Chambers <jc:trillian.mit.edu>
M: 2/4
L: 1/8
K: Am
|: "Am"{B}GA AG | AG c{e}c | GA AG | AG {e}c2 | GA AG | AB cd | "G"Bc {d}B{A}G | "Am"{e}AB A2 :|
|: "Dm"zd2 d | {a}dc d2 | d>e fe | d2 "C"c2 | "G"dg fe | "Dm"{a}dc d2 |1 "C"ef e/d/c | "Dm"d3z :|
"^Coda"|[2 ef e{d}c |  "D"dddz |
